X: 107
T:Untitled. HA.106
M:C
L:1/8
Q:160
S:Henry Atkinson's original MS,Hartburn,N'umberland,1694.
O:England
A:Hartburn,Northumberland
H:1/8
Z:vmp.Chris Partington.Jan.2004
K:G
G2g2 (ef)(ge)|(dB)(AG) FGA2|B2e2 e2(ag)|f2(ed) d4|!
G2g2 (ef)(ge)|(dB)(AG) (FG)A2|B2e2 e3d|B2(AG) G4:|!
G2g2 (ef)(ge)|(dB)(AG) FGA2|B2e2 e2(ag)|f2(ed) d4|!
G2g2 (ef)(ge)|(dB)(AG) (FG)A2|B2e2 e3d|B2(AG) G4||!
F3G A2(Bc)|B2e2 ^d2(cB)|e2f2g Be2|e3d e4|!
dedc Bc d2|e2(fg) f2 ed|gfed (Be)(dc)|B2(AG) G4|]
